ui/public/images/add_wallet/preview.svg

<svg fill="none" height="32" viewBox="0 0 32 32" width="32" xmlns="http://www.w3.org/2000/svg"><path clip-rule="evenodd" d="m6.37988 15.409c2.32981-2.5644 6.03562-5.0685 9.61882-5.008 3.5831-.0605 7.2889 2.4436 9.6214 5.008.5065.5624.5065 1.4164 0 1.9787-2.2809 2.5103-5.9769 5.0721-9.6214 5.0108-3.6445.0613-7.33968-2.5005-9.61882-5.0108-.50651-.5623-.50651-1.4163 0-1.9787zm9.59352 5.4897c-2.9952.0504-6.2971-2.1195-8.46572-4.5003 2.21251-2.4273 5.52542-4.5472 8.46572-4.4976.0168.0002.0337.0002.0506 0 2.94-.0496 6.2527 2.0699 8.4683 4.4976-2.1706 2.381-5.4732 4.5507-8.4684 4.5003-.0168-.0003-.0336-.0003-.0505 0zm.0266-5.9988h.0004c.3978-.0001.7794.1579 1.0606.4392.2813.2814.4392.663.439 1.0608l1.4996.0008-1.4996-.0004c-.0002.8284-.6719 1.4997-1.5003 1.4996-.8283-.0001-1.4998-.6718-1.4997-1.5001.0001-.8284.6716-1.4999 1.5-1.4999zm2.1218-.6213c.5627.5629.8786 1.3262.8782 2.1221-.0004 1.6567-1.3438 2.9995-3.0005 2.9992-1.6568-.0003-2.9996-1.3435-2.9995-3.0003.0001-1.6567 1.3433-2.9997 3-2.9997.7959-.0002 1.5592.3159 2.1218.8787z" fill="#b4cac9" fill-rule="evenodd"/></svg>

<svg width="32" height="32" viewBox="0 0 32 32" fill="none" xmlns="http://www.w3.org/2000/svg">
<g clip-path="url(#clip0_8262_102209)">
<path fill-rule="evenodd" clip-rule="evenodd" d="M6.37988 15.409C8.70969 12.8446 12.4155 10.3405 15.9987 10.401C19.5818 10.3405 23.2876 12.8446 25.6201 15.409C26.1266 15.9714 26.1266 16.8254 25.6201 17.3877C23.3392 19.898 19.6432 22.4598 15.9987 22.3985C12.3542 22.4598 8.65902 19.898 6.37988 17.3877C5.87337 16.8254 5.87337 15.9714 6.37988 15.409ZM15.9734 20.8987C12.9782 20.9491 9.6763 18.7792 7.50768 16.3984C9.72019 13.9711 13.0331 11.8512 15.9734 11.9008C15.9902 11.901 16.0071 11.901 16.024 11.9008C18.964 11.8512 22.2767 13.9707 24.4923 16.3984C22.3217 18.7794 19.0191 20.9491 16.0239 20.8987C16.0071 20.8984 15.9903 20.8984 15.9734 20.8987ZM16 14.8999H16.0004C16.3982 14.8998 16.7798 15.0578 17.061 15.3391C17.3423 15.6205 17.5002 16.0021 17.5 16.3999L18.9996 16.4007L17.5 16.4003C17.4998 17.2287 16.8281 17.9 15.9997 17.8999C15.1714 17.8998 14.4999 17.2281 14.5 16.3998C14.5001 15.5714 15.1716 14.8999 16 14.8999ZM18.1218 14.2786C18.6845 14.8415 19.0004 15.6048 19 16.4007C18.9996 18.0575 17.6562 19.4002 15.9995 19.3999C14.3427 19.3996 12.9999 18.0564 13 16.3996C13.0001 14.7429 14.3433 13.3999 16 13.3999C16.7959 13.3997 17.5592 13.7158 18.1218 14.2786Z" fill="#002522"/>
</g>
<defs>
<clipPath id="clip0_8262_102209">
<rect width="23" height="13.9643" fill="white" transform="translate(5 9)"/>
</clipPath>
</defs>
</svg>
